src/assets/media/icon_location_house.svg

<svg width="28" height="34" viewBox="0 0 28 34" fill="none" xmlns="http://www.w3.org/2000/svg">
    <path d="M9.27775 18.954H12.0555V14.0929H15.9444V18.954H18.7222V11.1762L14 8.03733L9.27775 11.1762V18.954ZM14 33.954C9.52774 30.1484 6.18746 26.6137 3.97913 23.3498C1.77079 20.0859 0.666626 17.0651 0.666626 14.2873C0.666626 10.1207 2.0069 6.80122 4.68746 4.329C7.36801 1.85678 10.4722 0.620667 14 0.620667C17.5277 0.620667 20.6319 1.85678 23.3125 4.329C25.993 6.80122 27.3333 10.1207 27.3333 14.2873C27.3333 17.0651 26.2291 20.0859 24.0208 23.3498C21.8125 26.6137 18.4722 30.1484 14 33.954Z"
          fill="#2F56FF"/>
</svg>

<svg width="28" height="34" fill="none" xmlns="http://www.w3.org/2000/svg">
    <path d="M9.278 18.954h2.777v-4.861h3.89v4.861h2.777v-7.778L14 8.037l-4.722 3.14v7.777zm4.722 15c-4.472-3.806-7.813-7.34-10.02-10.604C1.77 20.086.666 17.065.666 14.287c0-4.166 1.34-7.486 4.02-9.958C7.368 1.857 10.472.621 14 .621c3.528 0 6.632 1.236 9.313 3.708 2.68 2.472 4.02 5.792 4.02 9.958 0 2.778-1.104 5.799-3.312 9.063-2.209 3.264-5.549 6.798-10.021 10.604z"
          fill="#2F56FF"/>
</svg>
